X: 4
T: Sweet Biddy Of Ballyvourney
Z: Hugh O'Rourke
S: https://thesession.org/tunes/153#setting49549
R: reel
M: 4/4
L: 1/8
K: Gmaj
|:G2 BG Bdde|fdgd fdcA|G2BG Bdde|fdcA G2G2:|
g2 dg g2 de|fdgd fdcd|g2 dg g2|fdcA AG G2|
g2 dg g2 de|fdgd fdcd|dgga b2 ag|fdcA G2 G2||

